X: 255
T: Fa her
L: 1/16
M: 2/4
K: G
g g2 e d B2 d [I:setbarnb 1]| 
g g2 e d d2 B | 
d d2 g e d2 B | 
A A2 GA4 | 
d d2 B e e2 d | 
e B2 A G G2 E | 
d d2 B d A2 G | 
D8 |]

@@@ Tune index: 9129
